X:416
T:Heut' kommt der Hans zu mir
C:anon.
O:Germany
N:This is a two part round. Part two starts when part one gets to bar 5.
Z:Transcribed by Frank Nordberg - http://www.musicaviva.com
F:http://abc.musicaviva.com/tunes/germany/heut-kommt-der-hans.abc
M:3/4
L:1/8
K:F
"F"A2A2A2|"Bb"G3AB2|"C7"C2D2E2|"F"F6|
w:Heut' kommt der Hans zu mir, freut sich die Lies.
"F"cc cc cc|"Bb"BB Bcd2|"C"BB BB BB|"F"AA ABc2|
w:Ob er a- ber \"u-ber O-ber-am-mer-gau, Od-er a-ber \"u-ber Un-ter-am-mer-gau,
"F"AA AA AA|"Bb"G3AB2|"C7"C2D2E2|"F"F6|]
w:Od-er a-ber \"u-ber-haupt nicht kommt ist nicht ge-wist.
W:
W:Heut' kommt der Hans zu mir, freut sich die Lies.
W:Oder aber \"uber Oberammergau,
W:Oder aber \"uber Unterammergau,
W:Oder aber \"uberhaupt nicht kommt
W:ist nicht gewist.
W:
W:
W:  From Musica Viva - http://www.musicaviva.com
W:  the Internet center for free sheet music downloads.

